assets/images/2025-03-08-organizational-memory-externalization-01-iceberg.svg

<svg xmlns="http://www.w3.org/2000/svg" font-family="ui-serif, Georgia, 'Times New Roman', serif" viewBox="0 0 600 400">
  <path fill="#faf9f5" d="M0 0h600v400H0z"/>
  <text x="300" y="28" fill="#141413" font-size="14" font-weight="500" letter-spacing="-.02em" text-anchor="middle">知识冰山：显性与隐性知识分布</text>
  <text x="300" y="44" fill="#87867f" font-family="ui-monospace, monospace" font-size="10" text-anchor="middle">野中郁次郎 · 知识创造理论 · 1995</text>
  <path stroke="#d97757" stroke-dasharray="6,4" stroke-width="2.5" d="M40 168h400"/>
  <text x="440" y="164" fill="#d97757" font-family="ui-monospace, monospace" font-size="10" font-weight="600">水位线</text>
  <path fill="#fff" stroke="#d1cfc5" stroke-width="1.5" d="m300 68 62 95H238Z"/>
  <text x="300" y="118" fill="#d97757" font-size="11" font-weight="600" text-anchor="middle">显性知识 10%</text>
  <text x="300" y="134" fill="#87867f" font-family="ui-monospace, monospace" font-size="9" text-anchor="middle">API 文档 · 架构图 · 代码注释 · 手册</text>
  <circle cx="238" cy="168" r="5" fill="#d97757"/>
  <circle cx="362" cy="168" r="5" fill="#d97757"/>
  <path fill="#fff" stroke="#d1cfc5" stroke-width="1.5" d="m238 168-42 107 34 15 45-8 25 13 25-13 45 8 34-15-42-107Z"/>
  <text x="300" y="240" fill="#788c5d" font-size="11" font-weight="600" text-anchor="middle">隐性知识 90%</text>
  <text x="300" y="258" fill="#87867f" font-family="ui-monospace, monospace" font-size="9" text-anchor="middle">直觉判断 · 情境决策 · 部落知识</text>
  <path stroke="#d1cfc5" stroke-dasharray="3,3" stroke-width="1.5" d="M300 100v50"/>
  <path fill="#d1cfc5" d="m300 154-4-8h8z"/>
  <text x="318" y="118" fill="#87867f" font-family="ui-monospace, monospace" font-size="9">文档</text>
  <text x="318" y="130" fill="#87867f" font-family="ui-monospace, monospace" font-size="9">只能捕获</text>
  <text x="318" y="142" fill="#87867f" font-family="ui-monospace, monospace" font-size="9">可见部分</text>
  <text x="468" y="118" fill="#141413" font-size="10" font-weight="600">显性知识</text>
  <text x="468" y="132" fill="#87867f" font-size="9">可文档化</text>
  <text x="468" y="145" fill="#87867f" font-size="9">可编码</text>
  <text x="468" y="158" fill="#87867f" font-size="9">可传递</text>
  <text x="468" y="215" fill="#141413" font-size="10" font-weight="600">隐性知识</text>
  <text x="468" y="229" fill="#87867f" font-size="9">经验内化</text>
  <text x="468" y="242" fill="#87867f" font-size="9">情境依赖</text>
  <text x="468" y="255" fill="#87867f" font-size="9">难以言传</text>
  <text x="540" y="118" fill="#d97757" font-family="ui-monospace, monospace" font-size="22" font-weight="700">10%</text>
  <text x="540" y="230" fill="#788c5d" font-family="ui-monospace, monospace" font-size="22" font-weight="700">90%</text>
  <rect width="360" height="60" x="120" y="318" fill="#e3dacc" stroke="#d1cfc5" stroke-width="1.5" rx="8"/>
  <text x="300" y="340" fill="#141413" font-size="10" font-weight="600" text-anchor="middle">💡 关键洞察</text>
  <text x="300" y="356" fill="#141413" font-size="9.5" text-anchor="middle">显性知识告诉你&quot;怎么做&quot;，</text>
  <text x="300" y="370" fill="#141413" font-size="9.5" text-anchor="middle">隐性知识告诉你&quot;什么时候做、为什么做、什么时候不该做&quot;。</text>
</svg>

<svg viewBox="0 0 600 400" xmlns="http://www.w3.org/2000/svg" font-family="ui-serif, Georgia, 'Times New Roman', serif">
  <!-- Color palette: ivory bg #FAF9F5, clay #D97757, olive #788C5D, slate #141413, g300 #D1CFC5 -->

  <!-- Background -->
  <rect width="600" height="400" fill="#FAF9F5"/>

  <!-- Title -->
  <text x="300" y="28" text-anchor="middle" font-size="14" font-weight="500" fill="#141413" letter-spacing="-0.02em">知识冰山：显性与隐性知识分布</text>
  <text x="300" y="44" text-anchor="middle" font-size="10" fill="#87867F" font-family="ui-monospace, monospace">野中郁次郎 · 知识创造理论 · 1995</text>

  <!-- Water surface line (clay accent) -->
  <line x1="40" y1="168" x2="440" y2="168" stroke="#D97757" stroke-width="2.5" stroke-dasharray="6,4"/>
  <!-- Waterline label (clay) -->
  <text x="440" y="164" font-size="10" font-weight="600" fill="#D97757" font-family="ui-monospace, monospace">水位线</text>

  <!-- Above water (10%) - iceberg tip -->
  <path d="M 300 68 L 362 163 L 238 163 Z" fill="#FFFFFF" stroke="#D1CFC5" stroke-width="1.5"/>
  <text x="300" y="118" text-anchor="middle" font-size="11" font-weight="600" fill="#D97757">显性知识 10%</text>
  <text x="300" y="134" text-anchor="middle" font-size="9" fill="#87867F" font-family="ui-monospace, monospace">API 文档 · 架构图 · 代码注释 · 手册</text>

  <!-- Clay circles at waterline intersections -->
  <circle cx="238" cy="168" r="5" fill="#D97757"/>
  <circle cx="362" cy="168" r="5" fill="#D97757"/>

  <!-- Below water (90%) - main iceberg body -->
  <path d="M 238 168 L 196 275 L 230 290 L 275 282 L 300 295 L 325 282 L 370 290 L 404 275 L 362 168 Z" fill="#FFFFFF" stroke="#D1CFC5" stroke-width="1.5"/>
  <text x="300" y="240" text-anchor="middle" font-size="11" font-weight="600" fill="#788C5D">隐性知识 90%</text>
  <text x="300" y="258" text-anchor="middle" font-size="9" fill="#87867F" font-family="ui-monospace, monospace">直觉判断 · 情境决策 · 部落知识</text>

  <!-- Documentation captures visible portion arrow (dashed, pointing down into water) -->
  <line x1="300" y1="100" x2="300" y2="150" stroke="#D1CFC5" stroke-width="1.5" stroke-dasharray="3,3"/>
  <polygon points="300,154 296,146 304,146" fill="#D1CFC5"/>
  <text x="318" y="118" font-size="9" fill="#87867F" font-family="ui-monospace, monospace">文档</text>
  <text x="318" y="130" font-size="9" fill="#87867F" font-family="ui-monospace, monospace">只能捕获</text>
  <text x="318" y="142" font-size="9" fill="#87867F" font-family="ui-monospace, monospace">可见部分</text>

  <!-- Right side labels -->
  <text x="468" y="118" font-size="10" font-weight="600" fill="#141413">显性知识</text>
  <text x="468" y="132" font-size="9" fill="#87867F">可文档化</text>
  <text x="468" y="145" font-size="9" fill="#87867F">可编码</text>
  <text x="468" y="158" font-size="9" fill="#87867F">可传递</text>

  <text x="468" y="215" font-size="10" font-weight="600" fill="#141413">隐性知识</text>
  <text x="468" y="229" font-size="9" fill="#87867F">经验内化</text>
  <text x="468" y="242" font-size="9" fill="#87867F">情境依赖</text>
  <text x="468" y="255" font-size="9" fill="#87867F">难以言传</text>

  <!-- Percentage indicators right side -->
  <text x="540" y="118" font-size="22" font-weight="700" fill="#D97757" font-family="ui-monospace, monospace">10%</text>
  <text x="540" y="230" font-size="22" font-weight="700" fill="#788C5D" font-family="ui-monospace, monospace">90%</text>

  <!-- Bottom insight -->
  <rect x="120" y="318" width="360" height="60" rx="8" fill="#E3DACC" stroke="#D1CFC5" stroke-width="1.5"/>
  <text x="300" y="340" text-anchor="middle" font-size="10" font-weight="600" fill="#141413">💡 关键洞察</text>
  <text x="300" y="356" text-anchor="middle" font-size="9.5" fill="#141413">显性知识告诉你"怎么做"，</text>
  <text x="300" y="370" text-anchor="middle" font-size="9.5" fill="#141413">隐性知识告诉你"什么时候做、为什么做、什么时候不该做"。</text>
</svg>
